src/assets/queen-white.svg

<?xml version="1.0" encoding="UTF-8" standalone="no"?>
<!DOCTYPE svg PUBLIC "-//W3C//DTD SVG 1.1//EN" "http://www.w3.org/Graphics/SVG/1.1/DTD/svg11.dtd">
<svg width="100%" height="100%" viewBox="0 0 444 391" version="1.1" xmlns="http://www.w3.org/2000/svg" xmlns:xlink="http://www.w3.org/1999/xlink" xml:space="preserve" style="fill-rule:evenodd;clip-rule:evenodd;stroke-linejoin:round;stroke-miterlimit:2;">
    <g transform="matrix(1,0,0,1,-34.4828,-92.7846)">
        <path d="M477.518,181.964L477.518,182.014C477.518,195.729 466.233,207.014 452.518,207.014C449.11,207.014 445.737,206.317 442.608,204.966L380.318,355.226L131.398,355.226L69.158,205.036C66.094,206.322 62.805,206.984 59.483,206.984C45.768,206.984 34.483,195.699 34.483,181.984C34.483,168.27 45.768,156.984 59.483,156.984C73.197,156.984 84.483,168.27 84.483,181.984C84.483,187.723 82.506,193.291 78.888,197.746L165.888,268.946L186.808,142.546C174.921,140.436 166.177,130.003 166.177,117.931C166.177,104.216 177.462,92.931 191.177,92.931C204.891,92.931 216.177,104.216 216.177,117.931C216.177,127.722 210.424,136.65 201.508,140.696L255.818,257.696L310.238,140.396C301.501,136.275 295.902,127.445 295.902,117.785C295.902,104.07 307.188,92.785 320.902,92.785C334.617,92.785 345.902,104.07 345.902,117.785C345.902,130.027 336.909,140.558 324.818,142.476L345.748,268.896L433.008,197.596C429.455,193.162 427.518,187.646 427.518,181.964C427.518,168.249 438.803,156.964 452.518,156.964C466.233,156.964 477.518,168.249 477.518,181.964ZM405.858,423.216L105.858,423.216L105.858,483.216L405.858,483.216L405.858,423.216ZM378.108,371.216L133.888,371.216L133.888,407.216L378.108,407.216L378.108,371.216Z" style="fill:white;fill-rule:nonzero;stroke:black;stroke-width:5.33px;"/>
    </g>
</svg>

<svg xmlns="http://www.w3.org/2000/svg" viewBox="0 0 512 512"><g class="" style="" transform="translate(0,0)"><path d="M477.518 181.966a25 25 0 0 1-34.91 23l-62.29 150.26h-248.92l-62.24-150.19a25 25 0 1 1 9.73-7.29l87 71.2 20.92-126.4a25 25 0 1 1 14.7-1.85l54.31 117 54.42-117.3a25 25 0 1 1 14.58 2.08l20.93 126.42 87.26-71.3a25 25 0 1 1 44.51-15.63zm-71.66 241.25h-300v60h300v-60zm-27.75-52h-244.22v36h244.22v-36z" fill="#ffffff" fill-opacity="1" 
	stroke="#000000" stroke-width="6"></path></g></svg>
